polaris-icons/icons/new-icons/ImageAltMajor.svg

<svg width="20" height="20" viewBox="0 0 20 20" fill="none" xmlns="http://www.w3.org/2000/svg">
<path fill-rule="evenodd" clip-rule="evenodd" d="M6.6778 6.92894C6.55372 6.667 6.28983 6.5 5.99999 6.5C5.71016 6.5 5.44626 6.667 5.32219 6.92894L3.07219 11.6789C2.89487 12.0533 3.05459 12.5005 3.42893 12.6778C3.80327 12.8551 4.25048 12.6954 4.4278 12.3211L4.81672 11.5H7.18326L7.57219 12.3211C7.74951 12.6954 8.19672 12.8551 8.57106 12.6778C8.9454 12.5005 9.10512 12.0533 8.9278 11.6789L6.6778 6.92894ZM6.47274 10L5.99999 9.00198L5.52725 10H6.47274Z" fill="#4A4A4A"/>
<path d="M10.25 6.75C10.6642 6.75 11 7.08579 11 7.5V11.25H12.5C12.9142 11.25 13.25 11.5858 13.25 12C13.25 12.4142 12.9142 12.75 12.5 12.75H10.25C9.83579 12.75 9.5 12.4142 9.5 12V7.5C9.5 7.08579 9.83579 6.75 10.25 6.75Z" fill="#4A4A4A"/>
<path d="M13 6.75C12.5858 6.75 12.25 7.08579 12.25 7.5C12.25 7.91421 12.5858 8.25 13 8.25H14V12C14 12.4142 14.3358 12.75 14.75 12.75C15.1642 12.75 15.5 12.4142 15.5 12V8.25H16.5C16.9142 8.25 17.25 7.91421 17.25 7.5C17.25 7.08579 16.9142 6.75 16.5 6.75H13Z" fill="#4A4A4A"/>
</svg>

<svg viewBox="0 0 20 20" xmlns="http://www.w3.org/2000/svg"><path fill-rule="evenodd" d="M6.678 6.929a.75.75 0 0 0-1.356 0l-2.25 4.75a.75.75 0 0 0 1.356.642l.389-.821h2.366l.39.821a.75.75 0 0 0 1.355-.642l-2.25-4.75Zm-.205 3.071-.473-.998-.473.998h.946Z" fill="#5C5F62"/><path d="M10.25 6.75a.75.75 0 0 1 .75.75v3.75h1.5a.75.75 0 0 1 0 1.5h-2.25a.75.75 0 0 1-.75-.75v-4.5a.75.75 0 0 1 .75-.75Z" fill="#5C5F62"/><path d="M13 6.75a.75.75 0 0 0 0 1.5h1v3.75a.75.75 0 0 0 1.5 0v-3.75h1a.75.75 0 0 0 0-1.5h-3.5Z" fill="#5C5F62"/></svg>
